public/assets/images/icons/red/export/own-license.svg

<svg width="16" height="16" xmlns="http://www.w3.org/2000/svg" viewBox="0 0 16 16" shape-rendering="geometricPrecision" fill="#cb1800"><defs><mask id="a"><rect fill="#fff" width="100%" height="100%"/><path d="M13.848-1.1L12.051.695l.286.287A4.455 4.455 0 0 0 9.23 5.236v.987h2.626v-.988c0-.491.191-.954.538-1.302l.03-.03 1.425 1.421 3.212-3.213L13.848-1.1z" fill="#000"/></mask></defs><path d="M13.848-.04l-.736.735.821.821h-.234l-.156.008A3.722 3.722 0 0 0 9.98 5.235v.237h1.126v-.237c0-.691.27-1.343.759-1.833a2.579 2.579 0 0 1 1.833-.759h.3l-.886.887.735.734L16 2.111 13.848-.04z"/><g mask="url(#a)"><path d="M8 7.933c1.19 0 2.149-.96 2.149-2.148a2.149 2.149 0 0 0-4.298 0c0 1.188.963 2.148 2.149 2.148zm1.996 1.02h-4a2.071 2.071 0 0 0-2.064 2.07v2.692h8.136v-2.692c0-1.138-.933-2.07-2.072-2.07z"/><path d="M7.999.97a7.03 7.03 0 0 0 0 14.06 7.03 7.03 0 1 0 0-14.06zm0 12.638a5.616 5.616 0 0 1-5.607-5.605 5.616 5.616 0 0 1 5.607-5.611 5.617 5.617 0 0 1 5.609 5.611 5.615 5.615 0 0 1-5.609 5.605z"/></g></svg>

<?xml version="1.0"?><!DOCTYPE svg PUBLIC "-//W3C//DTD SVG 1.1//EN" "http://www.w3.org/Graphics/SVG/1.1/DTD/svg11.dtd"><svg width="16px" height="16px" xmlns="http://www.w3.org/2000/svg" viewBox="0 0 16 16" shape-rendering="geometricPrecision" fill="#cb1800"><defs><mask id="export-path"><rect fill="#fff" width="100%" height="100%"/><path d="M13.848-1.1l-1.797,1.795l0.286,0.287c-1.812,0.575-3.107,2.263-3.107,4.254v0.987h2.626 V5.235c0-0.491,0.191-0.954,0.538-1.302c0.01-0.01,0.021-0.02,0.03-0.03l1.425,1.421l3.212-3.213L13.848-1.1z" fill="#000"/></mask></defs><path id="export" display="inline" d="M13.848-0.04l-0.736,0.735l0.821,0.821h-0.234 l-0.156,0.008c-1.978,0.084-3.563,1.714-3.563,3.711v0.237h1.126V5.235c0-0.691,0.27-1.343,0.759-1.833 c0.49-0.489,1.141-0.759,1.833-0.759h0.237V2.643h0.063L13.112,3.53l0.735,0.734L16,2.111L13.848-0.04z" fill="#cb1800"/><g mask="url(#export-path)"><g><path d="M8,7.933c1.19,0,2.149-0.96,2.149-2.148c0-1.186-0.959-2.147-2.149-2.147 c-1.185,0-2.149,0.961-2.149,2.147C5.851,6.973,6.814,7.933,8,7.933z M9.996,8.953H5.996c-1.139,0-2.064,0.932-2.064,2.07v2.692 h8.136v-2.692C12.068,9.885,11.135,8.953,9.996,8.953z"/></g><path d="M7.999,0.97c-3.882,0-7.029,3.147-7.029,7.033c0.001,3.881,3.147,7.025,7.029,7.027c3.883-0.002,7.031-3.146,7.031-7.027 C15.03,4.116,11.882,0.97,7.999,0.97z M7.999,13.608c-3.096-0.006-5.601-2.512-5.607-5.605c0.006-3.1,2.511-5.606,5.607-5.611 c3.098,0.006,5.603,2.512,5.609,5.611C13.602,11.097,11.097,13.603,7.999,13.608z"/></g></svg>
